icon.svg

<svg width="32" height="32" viewBox="0 0 32 32" fill="none" xmlns="http://www.w3.org/2000/svg">
<path d="M0 8C0 3.58172 3.58172 0 8 0H24C28.4183 0 32 3.58172 32 8V24C32 28.4183 28.4183 32 24 32H8C3.58172 32 0 28.4183 0 24V8Z" fill="#F98012"/>
<path d="M21.9673 22.7921V15.0664C21.9673 13.4518 21.3012 12.6442 19.9691 12.6437C18.637 12.6432 17.9696 13.4508 17.9667 15.0664V22.7921H14.0311V15.0664C14.0311 13.4518 13.3753 12.6442 12.0636 12.6437C10.7292 12.6437 10.0631 13.4513 10.0655 15.0664V22.7921H6.12915V14.6104C6.12915 12.9249 6.71432 11.6492 7.88466 10.7833C8.91513 10.0102 10.3081 9.62366 12.0636 9.62366C13.8434 9.62366 15.1546 10.0801 15.9971 10.9931C16.7231 10.0801 18.0461 9.62366 19.9663 9.62366C21.7218 9.62366 23.1143 10.0102 24.1438 10.7833C25.3141 11.6487 25.8995 12.9244 25.9 14.6104V22.7921H21.9673Z" fill="white"/>
<path d="M13.7699 9.02861L17.6762 6.17412L17.6263 6C10.5771 6.8642 7.37154 7.47648 1.30005 10.9961L1.35642 11.1559L1.83883 11.1609C1.79459 11.6469 1.71752 12.8479 1.816 14.6541C1.14234 16.6037 1.79887 17.9282 2.41544 19.369C2.5132 17.8704 2.50321 16.229 2.04293 14.5956C1.94659 12.8015 2.0258 11.6219 2.06933 11.163L6.09416 11.2016C6.08334 11.9897 6.12315 12.7778 6.21333 13.5608C9.80998 14.8246 13.4273 13.5565 15.3477 10.4409C14.8146 9.84356 13.7699 9.02861 13.7699 9.02861Z" fill="#333333"/>
</svg>

<svg width="32" height="32" fill="none" xmlns="http://www.w3.org/2000/svg"><path d="M0 8a8 8 0 018-8h16a8 8 0 018 8v16a8 8 0 01-8 8H8a8 8 0 01-8-8V8z" fill="#F98012"/><path d="M21.967 22.792v-7.726c0-1.614-.666-2.422-1.998-2.422-1.332 0-2 .807-2.002 2.422v7.726H14.03v-7.726c0-1.614-.656-2.422-1.967-2.422-1.335 0-2 .807-1.998 2.422v7.726H6.129V14.61c0-1.685.585-2.96 1.756-3.827 1.03-.773 2.423-1.16 4.179-1.16 1.78 0 3.09.457 3.933 1.37.726-.913 2.05-1.37 3.97-1.37 1.755 0 3.147.387 4.177 1.16 1.17.866 1.756 2.141 1.756 3.827v8.182h-3.933z" fill="#fff"/><path d="M13.77 9.029l3.906-2.855-.05-.174C10.577 6.864 7.372 7.476 1.3 10.996l.056.16.483.005c-.044.486-.121 1.687-.023 3.493-.674 1.95-.017 3.274.6 4.715.097-1.499.087-3.14-.373-4.773-.096-1.794-.017-2.974.026-3.433l4.025.039c-.01.788.03 1.576.12 2.359 3.596 1.264 7.213-.005 9.134-3.12-.533-.597-1.578-1.412-1.578-1.412z" fill="#333"/></svg>
